X:8004
T:High Reel
R:Reel
C:Trad
O:Ireland
M:4/4
L:1/8
Q:1/4=160
K:D
"A"a2 fa ec A2|cAeA fAeA|a2 fa ec A2|"G"Bcdc BGGB|
"A"a2 fa ec A2|"Em"cdef g2 fg|"A"afge fdec|"G"Bcdc BG G2:|
|:"A"(3cBA eA fAeA|(3cBA af ec A2|(3cBA eA fAec|"G"Bcdc BGGB|
"A"(3cBA eA fAed|"Em"cdef g2 fg|"A"afge fdec|"G"Bcdc BGGB:|

